X:1
T:Title
%%score { ( 1 4 5 ) | ( 2 3 ) }
L:1/8
M:4/4
K:Bb
V:1 treble nm="Grand Piano"
V:4 treble 
V:5 treble 
V:2 treble 
V:3 treble 
V:1
 z4 z2[Q:1/4=100] F2 | d2 c2 B3 B | .[EGc]2 [FA]G [B,DF]3 [B,DF] | [B,EG]2 [B,FB]2 [EFA]2 [DFB]2 | %4
[M:3/4] c6 |[M:1/4] F2 |[M:4/4] d2 c2 B3 B | .[EGc]2 [FA][EG] z2 z G | [B,DF]2 [B,FB]2 [Fd]3 [Ec] | %9
[M:3/4] [B,DB]6 |[M:1/4] F2 |[M:4/4] c3 c ceGA | B4 z2 [DB][Ec] | [Fd]3 [Fd] [Fd]2 AB |[M:3/4] c6 | %15
[M:1/4] F2 |[M:4/4] d2 c2 B3 B | .[EGc]2 [FA][EG] [DF]3 [DF] | G2 B2 B2 A2 |[M:3/4] [DB]6 |] %20
V:2
 z4 z2 F,2 | [B,F]2 [A,CF]2 [B,DF]3 [B,DF] | z B[K:bass] z E B,,3 B,, | E,2 D,2 C,2 B,,2 | %4
[M:3/4] [F,A,F]6 |[M:1/4] F,2 |[M:4/4][K:treble] [B,F]2 [A,CF]2 [B,DF]3 [B,DF] | %7
 z B[K:bass] [E,B,]2 [E,B,]2 z E | B,,2 D,2 [F,B,]3 [F,A,] |[M:3/4] B,,6 |[M:1/4] F,2 | %11
[M:4/4] [F,A,F]3 [F,A,F] [F,A,F][F,CF][F,CE][F,CE] | z4 G2 [B,,B,]2 | %13
 [B,,B,]3 [B,,B,] [B,,B,]2 F,-[B,,F,] |[M:3/4] [F,A,F]6 |[M:1/4] F,2 | %16
[M:4/4][K:treble] [B,F]2 [A,CF]2 [B,DF]3 [B,DF] | z B[K:bass] [E,B,]2 [B,,B,]3 [B,,B,] | %18
 [E,B,E]2 [G,B,D]2 [F,DF]2 [F,CE]2 |[M:3/4] [B,,B,]6 |] %20
V:3
 x8 | x8 | E,2[K:bass] [E,B,]2 z4 | x8 |[M:3/4] x6 |[M:1/4] x2 |[M:4/4][K:treble] x8 | %7
 E,2[K:bass] z2 z2 E,2 | x8 |[M:3/4] x6 |[M:1/4] x2 |[M:4/4] x8 | B,,6 z2 | z4 z2 .C,2 | %14
[M:3/4] x6 |[M:1/4] x2 |[M:4/4][K:treble] x8 | E,2[K:bass] z2 z4 | x8 |[M:3/4] x6 |] %20
V:4
 x8 | x8 | x8 | x8 |[M:3/4] x6 |[M:1/4] x2 |[M:4/4] x8 | z4 [EG]4 | x8 |[M:3/4] x6 |[M:1/4] x2 | %11
[M:4/4] x8 | [B,D]6 z2 | z4 z2 F2 |[M:3/4] x6 |[M:1/4] x2 |[M:4/4] x8 | x8 | x8 |[M:3/4] x6 |] %20
V:5
 x8 | x8 | x8 | x8 |[M:3/4] x6 |[M:1/4] x2 |[M:4/4] x8 | z4 z2 B,2 | x8 |[M:3/4] x6 |[M:1/4] x2 | %11
[M:4/4] x8 | x8 | x8 |[M:3/4] x6 |[M:1/4] x2 |[M:4/4] x8 | x8 | x8 |[M:3/4] x6 |] %20

